X:24
T:My Father's Table
C:Sarah Gowan
M:3/4
K:Am
DE|"Dm"F2FD Fc|"G"BAG2FG|"Dm"A2AF Ac|
"G"B4B2|"Am"c2cA ce|"E7"d2c2B2|"Am"AB cB AG|1"F"A4:|2"F"A4 de||
K:Dm
"Dm"f2d2df|"C" ed cd ec|"Bb"f2d2df|"Am"e4e2|"Dm"f2fe df|
"C"e2c2c2|"Bb"d2^c2Ad|"A"^c4e2|"Dm"f2d2df|"C"ed cd ec|
"Bb"d2B2Bd|"A"^c4c2|"Bb"d4d2|"Am"cB AG FG|"F"FA EAEC|"Dm"D6|]
